tools/download-figma-icons/icons/outlined-large/coupon.svg

<svg width="64" height="64" viewBox="0 0 64 64" fill="none" xmlns="http://www.w3.org/2000/svg">
<path fill-rule="evenodd" clip-rule="evenodd" d="M33.65 64C32.18 64 30.8 63.43 29.76 62.39L1.61 34.24C0.57 33.2 0 31.82 0 30.35V5.5C0 2.47 2.47 0 5.5 0H30.35C31.82 0 33.2 0.57 34.24 1.61L62.39 29.76C63.43 30.8 64 32.18 64 33.65C64 35.12 63.43 36.5 62.39 37.54L37.54 62.39C36.5 63.43 35.12 64 33.65 64ZM5.5 3C4.12 3 3 4.12 3 5.5V30.35C3 31.02 3.26 31.65 3.73 32.12L31.88 60.27C32.82 61.21 34.47 61.21 35.42 60.27L60.27 35.42C60.74 34.95 61 34.32 61 33.65C61 32.98 60.74 32.35 60.27 31.88L32.11 3.73C31.64 3.26 31.01 3 30.34 3H5.5ZM14.5 21C10.92 21 8 18.08 8 14.5C8 10.92 10.92 8 14.5 8C18.08 8 21 10.92 21 14.5C21 18.08 18.08 21 14.5 21ZM14.5 11C12.57 11 11 12.57 11 14.5C11 16.43 12.57 18 14.5 18C16.43 18 18 16.43 18 14.5C18 12.57 16.43 11 14.5 11ZM30.6001 50.9898C31.2788 51.6586 32.1568 51.9986 33.0451 51.9998C33.0434 51.9998 33.0417 51.9998 33.0401 51.9998H33.0501C33.0484 51.9998 33.0467 51.9998 33.0451 51.9998C33.9334 51.9986 34.8213 51.6586 35.4901 50.9898L50.9801 35.4998C52.3301 34.1498 52.3301 31.9598 50.9801 30.6098L44.3901 24.0198C43.0401 22.6698 40.8501 22.6698 39.5001 24.0198L24.0101 39.5098C22.6601 40.8598 22.6601 43.0498 24.0101 44.3998L30.6001 50.9898ZM41.6001 26.0998C41.7001 26.0098 41.8201 25.9598 41.9501 25.9598C42.0801 25.9598 42.2001 25.9998 42.3001 26.0998L48.8901 32.6898C49.0801 32.8798 49.0801 33.1998 48.8901 33.3898L33.4001 48.8798C33.2101 49.0698 32.8901 49.0698 32.7001 48.8798L26.1101 42.2898C25.9201 42.0998 25.9201 41.7798 26.1101 41.5898L41.6001 26.0998Z" fill="black"/>
</svg>

<svg width="64" height="64" viewBox="0 0 64 64" fill="none" xmlns="http://www.w3.org/2000/svg"><path d="M33.65 64a5.46 5.46 0 0 1-3.89-1.61L1.61 34.24A5.46 5.46 0 0 1 0 30.35V5.5C0 2.47 2.47 0 5.5 0h24.85c1.47 0 2.85.57 3.89 1.61l28.15 28.15A5.46 5.46 0 0 1 64 33.65c0 1.47-.57 2.85-1.61 3.89L37.54 62.39A5.46 5.46 0 0 1 33.65 64ZM5.5 3A2.5 2.5 0 0 0 3 5.5v24.85c0 .67.26 1.3.73 1.77l28.15 28.15c.94.94 2.59.94 3.54 0l24.85-24.85c.47-.47.73-1.1.73-1.77 0-.67-.26-1.3-.73-1.77L32.11 3.73c-.47-.47-1.1-.73-1.77-.73H5.5Z" fill="currentColor"/><path d="M14.5 21C10.92 21 8 18.08 8 14.5S10.92 8 14.5 8s6.5 2.92 6.5 6.5-2.92 6.5-6.5 6.5Zm0-10c-1.93 0-3.5 1.57-3.5 3.5s1.57 3.5 3.5 3.5 3.5-1.57 3.5-3.5-1.57-3.5-3.5-3.5Zm18.55 41c-.89 0-1.77-.34-2.45-1.01l-6.59-6.59a3.458 3.458 0 0 1 0-4.89L39.5 24.02a3.458 3.458 0 0 1 4.89 0l6.59 6.59a3.458 3.458 0 0 1 0 4.89L35.49 50.99A3.46 3.46 0 0 1 33.04 52h.01Zm8.9-26.04c-.13 0-.25.05-.35.14L26.11 41.59c-.19.19-.19.51 0 .7l6.59 6.59c.19.19.51.19.7 0l15.49-15.49c.19-.19.19-.51 0-.7L42.3 26.1c-.1-.1-.22-.14-.35-.14Z" fill="currentColor"/></svg>
